X: 100145
M: 6/8
L: 1/8
K: D
|:\
vF3 {F}EDE | DED DFA | Bcd AGF | GEE {F}EDE |\
|:\
vFGA AAA | AB=c B^cd | AGF FED | CDE EFG |\


